X:1
T:Irving, 87.87 D
T:Irving, 87.87 D
T:W. Irving Hartshorn, 1901
T:Public Domain Courtesy of the Cyber Hymnal™
C:W. Irving Hartshorn, 1901
Z:Public Domain
Z:Courtesy of the Cyber Hymnal™
%%score ( 1 2 ) ( 3 4 )
L:1/8
Q:1/4=105
M:9/8
K:Eb
V:1 treble 
V:2 treble 
V:3 bass 
V:4 bass 
V:1
 [GB]2 [FA] | [EG]3- [EG]2 [DF] (GF)[B,E] | [EG]3 [GB]3 [GB]2 [Ac] | %3
 [GB]3- [GB]2 [EG] ([EG][DF])[CE] | [DF]6 [GB]2 [FA] | [EG]3- [EG]2 [DF] (GF)[B,E] | %6
 [EG]3 [GB]3 [EA]2 [FA] | [EG]3- [EG]2 E (FG)[DF] | [B,E]6 [EG]2 [GB] | %9
 [Ge]3- [Ge]2 [Bd] [ce][Bd][Ac] | [GB]3 [EG]3 [GB]2 [Ac] | [GB]3- [GB]2 [EG] (FG)[E=A] | %12
 [DB]6 [GB]2 [FA] | [EG]3- [EG]2 [DF] (GF)[B,E] | [EG]3 [GB]3 [EA]2 [FA] | %15
 [EG]3- [EG]2 E (FG)[DF] | [B,E]6 |] %17
V:2
 x3 | x6 E2 x | x9 | x9 | x9 | x6 E2 x | x9 | x5 E D2 x | x9 | x9 | x9 | x6 E2 x | x9 | x6 E2 x | %14
 x9 | x5 E D2 x | x6 |] %17
V:3
 [E,B,]2 [E,B,] | [E,B,]3- [E,B,]2 [B,,B,] (B,A,)[E,G,] | [E,B,]3 [E,E]3 [E,E]2 [E,E] | %3
 [E,E]3- [E,E]2 [E,B,] [C,C]2 [C,G,] | [B,,B,]6 [E,B,]2 [E,B,] | %5
 [E,B,]3- [E,B,]2 [E,B,] (B,A,)[E,G,] | [E,B,]3 [E,E]3 [A,,C]2 [A,,C] | %7
 [B,,B,]3- [B,,B,]2 [B,,G,] (A,B,)[B,,A,] | [E,G,]6 [E,B,]2 [E,E] | %9
 [E,E]3- [E,E]2 [E,E] [A,E]2 [A,E] | [E,E]3 [E,E]3 [E,E]2 [E,E] | %11
 [E,E]3- [E,E]2 [E,B,] (=A,B,)[F,C] | [B,,B,]6 [E,B,]2 [E,B,] | %13
 [E,B,]3- [E,B,]2 [B,,B,] (B,A,)[E,G,] | [E,B,]3 [E,E]3 [A,,C]2 [A,,C] | %15
 [B,,B,]3- [B,,B,]2 [B,,G,] (A,B,)[B,,A,] | [E,G,]6 |] %17
V:4
 x3 | x6 E,2 x | x9 | x9 | x9 | x6 E,2 x | x9 | x6 B,,2 x | x9 | x9 | x9 | x6 F,2 x | x9 | %13
 x6 E,2 x | x9 | x6 B,,2 x | x6 |] %17

